svgs/light/truck-pickup.svg

<svg xmlns="http://www.w3.org/2000/svg" viewBox="0 0 640 512"><!--! Font Awesome Pro 6.6.0 by @fontawesome - https://fontawesome.com License - https://fontawesome.com/license (Commercial License) Copyright 2024 Fonticons, Inc. --><path d="M256 80l0 112 229.3 0L389 70.1c-3-3.8-7.7-6.1-12.6-6.1L272 64c-8.8 0-16 7.2-16 16zM524.6 190.1l1.5 1.9 25.9 0c30.9 0 56 25.1 56 56l0 104 16 0c8.8 0 16 7.2 16 16s-7.2 16-16 16l-16 0-32 0-16 0c0 53-43 96-96 96s-96-43-96-96l-96 0c0 53-43 96-96 96s-96-43-96-96l-16 0-32 0-16 0c-8.8 0-16-7.2-16-16s7.2-16 16-16l16 0 0-104c0-30.9 25.1-56 56-56l136 0 0-112c0-26.5 21.5-48 48-48l104.5 0c14.7 0 28.6 6.7 37.7 18.3L524.6 190.1zM64 352l21.5 0c13.2-37.3 48.7-64 90.5-64s77.4 26.7 90.5 64l106.9 0c13.2-37.3 48.7-64 90.5-64s77.4 26.7 90.5 64l21.5 0 0-104c0-13.3-10.7-24-24-24L88 224c-13.3 0-24 10.7-24 24l0 104zm176 32a64 64 0 1 0 -128 0 64 64 0 1 0 128 0zm224 64a64 64 0 1 0 0-128 64 64 0 1 0 0 128z"/></svg>

<svg xmlns="http://www.w3.org/2000/svg" viewBox="0 0 640 512"><!--! Font Awesome Pro 6.4.2 by @fontawesome - https://fontawesome.com License - https://fontawesome.com/license (Commercial License) Copyright 2023 Fonticons, Inc. --><path d="M256 80V192H485.3L389 70.1c-3-3.8-7.7-6.1-12.6-6.1H272c-8.8 0-16 7.2-16 16zM524.6 190.1l1.5 1.9H552c30.9 0 56 25.1 56 56V352h16c8.8 0 16 7.2 16 16s-7.2 16-16 16H608 576 560c0 53-43 96-96 96s-96-43-96-96H272c0 53-43 96-96 96s-96-43-96-96H64 32 16c-8.8 0-16-7.2-16-16s7.2-16 16-16H32V248c0-30.9 25.1-56 56-56H224V80c0-26.5 21.5-48 48-48H376.5c14.7 0 28.6 6.7 37.7 18.3L524.6 190.1zM64 352H85.5c13.2-37.3 48.7-64 90.5-64s77.4 26.7 90.5 64H373.5c13.2-37.3 48.7-64 90.5-64s77.4 26.7 90.5 64H576V248c0-13.3-10.7-24-24-24H88c-13.3 0-24 10.7-24 24V352zm176 32a64 64 0 1 0 -128 0 64 64 0 1 0 128 0zm224 64a64 64 0 1 0 0-128 64 64 0 1 0 0 128z"/></svg>
